X: 305646
M: 6/8
L: 1/8
K: D
d/e/ |\
f2f g2g | baa a2f | dfa Adf | fag e2 d/e/ |\
f2f g2g | baa a2g | f>ad egf | dfe "^D.C."d2 |]
d/f/ |\
baf Adf | DFA dfa | age Ace | DFA dfa |\
baf Adf | DFA dfa | age ABc | d2f "^D.C."d2 |]


